X:1
T:How Sweet the Hour of Praise and Prayer
T:Scottish Tune (Auld Lang Syne)
T:How Sweet the Hour of Praise and Prayer
T:Public Domain
T:Public Domain
C:Scottish Tune (Auld Lang Syne)
Z:Public Domain
%%score ( 1 2 ) 3
L:1/8
M:4/4
K:F
V:1 treble 
V:2 treble 
V:3 bass 
V:1
 C2 | [CF]3 [CF] [CF]2 [FA]2 | [EG]3 [DF] [EG]2 [EA]2 | F3 F [FA]2 [Fc]2 | [Fd]6 [Ff]2 | %5
w: 1.~How|the hour of praise|and prayer, When our|de- vo- tions blend,|the wings|
w: 2.~How|the tie of hal-|lowed love That binds|our hearts in one;|thered in|
w: 3.~Yes,|our worn and wear-|y feet Will reach|the gold- en strand,|we love|
 [Fc]3 [FA] [FA]2 F2 | [EG]3 [DF] [EG]2 [CA]2 | [DF]3 [B,D] [B,D]2 [B,C]2 | [A,F]6 [Fd]2 | %9
w: of faith di- vine|songs of joy a-|scend! ’Tis then we|hear in|
w: the bless- èd name|Christ, the Fa- ther’s|Son! And though the|part- ing|
w: our com- ing wait|yon- der sum- mer-|land; A few more|days, a|
 [Fc]3 [FA] [FA]2 F2 | [EG]3 [DF] [EG]2 [Ed]2 | [Fc]3 [FA] [FA]2 [Fc]2 | [Fd]6 [Ff]2 | %13
w: tones more clear The|gra- cious prom- ise|giv’n, That, though we|part from|
w: soon may come, Yet|in His Word is|giv’n The bless- èd|hope that|
w: few more years, By|storm and tem- pest|driv’n, With songs and|ev- er-|
 [Fc]3 [FA] [FA]2 F2 | [EG]3 [DF] [EG]2 [EA]2 | [DF]3 [B,D] [B,D]2 [B,C]2 | [A,F]6 [Fd]2 | %17
w: friends on earth, We|all shall meet in|Heav’n. * * *||
w: by and by We|all shall meet in|Heav’n. We all shall|meet in|
w: last- ing joy We|all shall meet in|Heav’n. * * *||
 [Fc]3 [FA] [FA]2 F2 | [EG]3 [DF] [EG]2 [Ed]2 | [Fc]3 [FA] [FA]2 [Fc]2 | [Fd]6 [Ff]2 | %21
w: ||||
w: Heav’n at last, We|all shall meet in|Heav’n; Through faith in|Je- sus’|
w: ||||
 [Fc]3 [FA] [FA]2 F2 | [EG]3 [DF] [EG]2 [EA]2 | [DF]3 [B,D] [B,D]2 [B,C]2 | [A,F]6 |] %25
w: ||||
w: pre- cious blood, We|all shall meet in|Heav’n. * * *||
w: ||||
V:2
 C2 | x8 | x8 | F3 F x4 | x8 | x6 F2 | x8 | x8 | x8 | x8 | x8 | x8 | x8 | x8 | x8 | x8 | x8 | x8 | %18
w: sweet|||And on||Our|||||||||||||
w: sweet|||When ga-||Of|||||||||||||
w: soon|||Where those||In|||||||||||||
 x8 | x8 | x8 | x8 | x8 | x8 | x6 |] %25
w: |||||||
w: |||||||
w: |||||||
V:3
 [F,A,]2 | [F,A,]3 [F,A,] [F,A,]2 [F,C]2 | [C,C]3 [C,C] [C,C]2 [C,B,]2 | %3
 [F,A,]3 [F,A,] [F,C]2 [F,A,]2 | [B,,B,]6 [D,B,]2 | [F,A,]3 [F,C] [F,C]2 [F,A,]2 | %6
 [C,C]3 [C,C] [C,C]2 [C,E,]2 | [D,F,]3 [B,,F,] [B,,F,]2 [C,E,]2 | [F,,F,]6 [F,B,]2 | %9
 [F,A,]3 [F,C] [F,C]2 [F,A,]2 | [C,C]3 [C,C] [C,C]2 [C,B,]2 | [F,A,]3 [F,C] [F,C]2 [F,A,]2 | %12
 [B,,B,]6 [D,B,]2 | [F,A,]3 [F,C] [F,C]2 [F,A,]2 | [C,C]3 [C,C] [C,C]2 [C,E,]2 | %15
 [D,F,]3 [B,,F,] [B,,F,]2 [C,E,]2 | [F,,F,]6 [F,B,]2 | [F,A,]3 [F,C] [F,C]2 [F,A,]2 | %18
 [C,C]3 [C,C] [C,C]2 [C,B,]2 | [F,A,]3 [F,C] [F,C]2 [F,A,]2 | [B,,B,]6 [D,B,]2 | %21
 [F,A,]3 [F,C] [F,C]2 [F,A,]2 | [C,C]3 [C,C] [C,C]2 [C,E,]2 | [D,F,]3 [B,,F,] [B,,F,]2 [C,E,]2 | %24
 [F,,F,]6 |] %25

